!!!COM: Anon.
!!!OTL: Song of the Black Eagle
!!!ODT: <1918//
!!!MPN: Marolipa [Buffalo Bull Head, Ben Benson]
!!!MLC: Fort Berthold Reservation, North Dakota, United States of America
!! Song was recorded during either the summer of 1912, 1915, or 1918.
!!!AGN: monody
!!!AST: Songs Connected With Eagle Catching
!!!AMT: irregular
!!!RWG: Transcribed pitches, durations, and meters are only approximate.
!! Drum not recorded.
**kern
*ICvox
*Imale
*clefF4
*k[f#]
*M3/4
*MM92
=1-
4e
(12e
12e
12e)
8.e
16B
*M2/4
=2
4e
4B
=3
4B
4B
*M3/4
=4
4e
(12e
12B)
12B
8.B
16B~
*M2/4
=5
4B
4G
=6
4G
4G
*M3/4
=7
4B
(12B
12B
12B)
8.B
16B
*M2/4
=8
4B
4G
=9
4G
4E
*M3/4
=10
4B
(12G
12G
12G)
8.G
16E
*M2/4
=11
4G
4E
=12
4.E
8D
=13
4E
(8E
8D)
=14
2BB
==
*-
!!!CNT: Mandan
!!!TXO: Mandan
!!!OCY: United States
!!!OCL: Frances Densmore
!!!YOR: Frances Densmore, "Mandan and Hidatsa Music",
!!!YOR: Bulletin 80, page 71, No. 20
!!!PPR: Smithsonian Institution, Bureau of American Ethnology
!!!PPR: Government Printing Office
!!!PDT: 1923
!!!PPP: Washington, DC, United States of America
!!!YEC: Electronic Copyright 2000 David Huron
!!!YER: August 2000
!!!YEN: United States of America
!!!ENC: David Huron
!!!RDT: August 16, 2000
!!!EEV: Release 1.0
!!!AIN: tom, vox
